!!!COM: Mozart, Wolfgang Amadeus
!!!OTL: Musikalische Würfelspiele, Kontre-Tänze
!!!SCA: K<sup>6</sup> Anh. C30.01 (K<sup>3</sup> Anh. 294d)
**kern	**kern
*staff2	*staff2
*clefF4	*clefG2
*M2/4	*M2/4
*MM110	*MM110
*>[A,A1,A,A2,B]	*>[A,A1,A,A2,B]
*>norep[A,A2,B]	*>norep[A,A2,B]
*>A	*>A
=99	=99
16C	8g
16G	.
16E	4cc
16G	.
16C	.
16G	.
16E	8ee
16G	.
=45	=45
16C	8gg
16D	.
16C	8ccc
16BB	.
16C	8gg
16D	.
16E	8ee
16C	.
=131	=131
16GG	8ff
16D	.
16BB	4dd
16D	.
16GG	.
16D	.
16BB	8b
16D	.
=35	=35
4C	16cc
.	16dd
.	16ee
.	16dd
4CC	16cc
.	16ee
.	16gg
.	16cc
=111	=111
4D	8d
.	16f#
.	16a
4D	8dd
.	8ff#
=52	=52
16BB	8gg
16GG	.
16BB	8bb
16D	.
16G	8gg
16D	.
16BB	8dd
16GG	.
=161	=161
4C	16ee
.	16gg
.	16ee
.	16cc
4D	16b
.	16a
.	16g
.	16f#
=44	=44
*>A1	*>A1
4GG	4g 4b 4gg
16G	4r
16F	.
16E	.
16D	.
=44:|!	=44:|!
*>A2	*>A2
4GG	4g 4b 4gg
16GG	4r
16AA	.
16BB	.
16C#	.
=22||	=22||
*>B	*>B
4D	16aa
.	16bb
.	16aa
.	16gg
4C 4D	16ggQ
.	16ff#
.	16ee
.	16dd
=104	=104
4G	8gg
.	16ddd
.	16bb
4GG	4gg
=87	=87
4C	8ee
.	16cc
.	16ee
4r	8gg
.	16ee
.	16cc
=84	=84
16GG	8dd
16BB	.
16D	8b
16G	.
16GG	4g
16F	.
16E	.
16D	.
=75	=75
16C	4cc
16GG	.
16AA	.
16BB	.
16C	8cc
16GG	.
16AA	8cc
16BB	.
=101	=101
16C	8gg
16G	.
16E	4ee
16G	.
16C	.
16G	.
16E	8cc
16G	.
=109	=109
16GG	8dd
16D	.
16BB	4ff
16D	.
16GG	.
16D	.
16BB	8b
16D	.
=41	=41
4C	4cc
4CC	4c
==	==
*-	*-
